X: 1622
T: Joe Yates Stairway Reel
B: australian traditional tunes wiki
M:4/4
L:1/8
R: Reel
Q: 1/4=100
K:D
V:1 
FG|:"D"ABAF DFAF|"G"G2Bd efed|"A7"c2EF GFEF|"D"DEFG "A7"ABA2|
"D"ABAF DFAF|"G"G2Bd efed|"A7"c2EF GFEF|1"D"D6FG:|2"D"D6^D2||
|:"A"E2EF E2EF|EFABc4|"E7"cd B2BA^GB|1"A"ABcde2z2:|2"A"A2^G2=G2FG||
|:"D"Adcd FGAB|"A"AG2FG4|1"A"A,B,CD EF (3GFE|"D"DFAd fdAF:|2"A"A,B,CD EF (3GFE|"D"D6z2||
% abcbook-tune_id 6342d53aec05b7d58978a9ab


% abcbook-boost 0
% abcbook-tablature 
% abcbook-transpose 
% abcbook-lastupdated 1665324374582
% abcbook-soundfonts 
% abcbook-repeats 1
% NFF Book 2019

